X: 30129
T: Old Bush, The
R: reel
M: 4/4
K: Dmixolydian
A2 GA cA ~A2|d^cde fdec|A2 GA cAGA|dfef cAdc|
A2 GA cAGB|Add^c defg|(3agf (3gfe fde^c|dfed cA A2||
eg ~g2 edcd|efge ~c3 d|eg ~g2 afge|dfed cA A2|
eg ~g2 ag ~g2|fgfe defg|(3agf (3gfe fde^c|dfed cA A2||

